svg/black/chat.svg

<svg height="32" viewBox="0 0 32 32" width="32" xmlns="http://www.w3.org/2000/svg"><path d="m16 32c-8.836556 0-16-7.163444-16-16s7.163444-16 16-16 16 7.163444 16 16-7.163444 16-16 16zm.2806167-8.6748446c1.0270352.710894 2.3311163 1.1341572 3.7438707 1.1341572.3507328 0 .6978232-.0260318 1.0385015-.0774077.1168227.0484099.2299971.1065991.3686475.1874728.3003741.175206.7016728.4456463 1.1995773.8094507.4093472.2990982.9888434.0103007.9888434-.4927996v-1.4612018c.2090835-.1357566.4078243-.2833208.5948315-.4417291 1.1308973-.9579499 1.7851114-2.2681443 1.7851114-3.673019 0-.9255559-.2809193-1.7902319-.7717825-2.5368539-.1548401.5318024-.3657612 1.0436271-.6268971 1.530652.1033671.3218546.1583695.6592531.1583695 1.0062019 0 1.0341267-.4871964 2.0098349-1.3519844 2.7423714-.2184259.1850221-.4584417.352092-.716453.4984026-.1926809.1092637-.3115055.3120329-.3115055.5315712v.6240645c-.5928456-.3801283-1.0002677-.5592506-1.3101338-.5592506-.0347418 0-.0694222.0028851-.1036751.0086249-.3074481.051519-.6222773.0777144-.9414507.0777144-.5854498 0-1.1445328-.0878672-1.6600573-.2480782-.6684918.173939-1.3658088.2893874-2.0838134.3396563zm-7.46696346-2.9226504c.32649256.2765623.67572564.5323133 1.04473903.7651784v2.4926101c0 .6288754.72437033.9898723 1.23605433.6159996 1.4102944-1.0304614 2.3892925-1.6123798 2.6346628-1.6704586.5662303.0896796 1.1440045.1351576 1.7282549.1351576 5.1989141 0 9.4573644-3.6072081 9.4573644-8.120496 0-4.513288-4.2584503-8.1204961-9.4573644-8.1204961-5.198914 0-9.4573643 3.6072081-9.4573643 8.1204961 0 2.2087867 1.02962027 4.270807 2.81365324 5.7820089zm4.94934056.6663437c-.5031075 0-1.2375207.3555562-2.3542139 1.1042693v-1.4368503c0-.2744229-.1485307-.5278843-.3893818-.6644639-.4307167-.2442468-.8316408-.5233214-1.19676599-.8326082-1.45139627-1.2294352-2.27224451-2.8733478-2.27224451-4.6186995 0-3.6101708 3.51583-6.58832703 7.9069767-6.58832703 4.3911468 0 7.9069768 2.97815623 7.9069768 6.58832703 0 3.6101707-3.51583 6.5883269-7.9069768 6.5883269-.5303453 0-1.053624-.0435394-1.5647766-.1291932-.0428161-.0071747-.0861666-.0107811-.1295939-.0107811zm-2.3366372-4.9161836c.6850043 0 1.2403101-.5487803 1.2403101-1.2257352s-.5553058-1.2257353-1.2403101-1.2257353c-.6850044 0-1.2403101.5487804-1.2403101 1.2257353s.5553057 1.2257352 1.2403101 1.2257352zm4.0310077 0c.6850044 0 1.2403101-.5487803 1.2403101-1.2257352s-.5553057-1.2257353-1.2403101-1.2257353c-.6850043 0-1.24031.5487804-1.24031 1.2257353s.5553057 1.2257352 1.24031 1.2257352zm4.0310078 0c.6850043 0 1.2403101-.5487803 1.2403101-1.2257352s-.5553058-1.2257353-1.2403101-1.2257353-1.2403101.5487804-1.2403101 1.2257353.5553058 1.2257352 1.2403101 1.2257352z" fill-rule="evenodd"/></svg>

<svg xmlns="http://www.w3.org/2000/svg" width="32" height="32" viewBox="0 0 32 32">
  <path fill-rule="evenodd" d="M16,32 C7.163444,32 0,24.836556 0,16 C0,7.163444 7.163444,0 16,0 C24.836556,0 32,7.163444 32,16 C32,24.836556 24.836556,32 16,32 Z M16.2806167,23.3251554 C17.3076519,24.0360494 18.611733,24.4593126 20.0244874,24.4593126 C20.3752202,24.4593126 20.7223106,24.4332808 21.0629889,24.3819049 C21.1798116,24.4303148 21.292986,24.488504 21.4316364,24.5693777 C21.7320105,24.7445837 22.1333092,25.015024 22.6312137,25.3788284 C23.0405609,25.6779266 23.6200571,25.3891291 23.6200571,24.8860288 L23.6200571,23.424827 C23.8291406,23.2890704 24.0278814,23.1415062 24.2148886,22.9830979 C25.3457859,22.025148 26,20.7149536 26,19.3100789 C26,18.384523 25.7190807,17.519847 25.2282175,16.773225 C25.0733774,17.3050274 24.8624563,17.8168521 24.6013204,18.303877 C24.7046875,18.6257316 24.7596899,18.9631301 24.7596899,19.3100789 C24.7596899,20.3442056 24.2724935,21.3199138 23.4077055,22.0524503 C23.1892796,22.2374724 22.9492638,22.4045423 22.6912525,22.5508529 C22.4985716,22.6601166 22.379747,22.8628858 22.379747,23.0824241 L22.379747,23.7064886 C21.7869014,23.3263603 21.3794793,23.147238 21.0696132,23.147238 C21.0348714,23.147238 21.000191,23.1501231 20.9659381,23.1558629 C20.65849,23.2073819 20.3436608,23.2335773 20.0244874,23.2335773 C19.4390376,23.2335773 18.8799546,23.1457101 18.3644301,22.9854991 C17.6959383,23.1594381 16.9986213,23.2748865 16.2806167,23.3251554 Z M8.81365324,20.402505 C9.1401458,20.6790673 9.48937888,20.9348183 9.85839227,21.1676834 L9.85839227,23.6602935 C9.85839227,24.2891689 10.5827626,24.6501658 11.0944466,24.2762931 C12.504741,23.2458317 13.4837391,22.6639133 13.7291094,22.6058345 C14.2953397,22.6955141 14.8731139,22.7409921 15.4573643,22.7409921 C20.6562784,22.7409921 24.9147287,19.133784 24.9147287,14.6204961 C24.9147287,10.1072081 20.6562784,6.5 15.4573643,6.5 C10.2584503,6.5 6,10.1072081 6,14.6204961 C6,16.8292828 7.02962027,18.8913031 8.81365324,20.402505 Z M13.7629938,21.0688487 C13.2598863,21.0688487 12.5254731,21.4244049 11.4087799,22.173118 L11.4087799,20.7362677 C11.4087799,20.4618448 11.2602492,20.2083834 11.0193981,20.0718038 C10.5886814,19.827557 10.1877573,19.5484824 9.82263211,19.2391956 C8.37123584,18.0097604 7.5503876,16.3658478 7.5503876,14.6204961 C7.5503876,11.0103253 11.0662176,8.03216907 15.4573643,8.03216907 C19.8485111,8.03216907 23.3643411,11.0103253 23.3643411,14.6204961 C23.3643411,18.2306668 19.8485111,21.208823 15.4573643,21.208823 C14.927019,21.208823 14.4037403,21.1652836 13.8925877,21.0796298 C13.8497716,21.0724551 13.8064211,21.0688487 13.7629938,21.0688487 Z M11.4263566,16.1526651 C12.1113609,16.1526651 12.6666667,15.6038848 12.6666667,14.9269299 C12.6666667,14.249975 12.1113609,13.7011946 11.4263566,13.7011946 C10.7413522,13.7011946 10.1860465,14.249975 10.1860465,14.9269299 C10.1860465,15.6038848 10.7413522,16.1526651 11.4263566,16.1526651 Z M15.4573643,16.1526651 C16.1423687,16.1526651 16.6976744,15.6038848 16.6976744,14.9269299 C16.6976744,14.249975 16.1423687,13.7011946 15.4573643,13.7011946 C14.77236,13.7011946 14.2170543,14.249975 14.2170543,14.9269299 C14.2170543,15.6038848 14.77236,16.1526651 15.4573643,16.1526651 Z M19.4883721,16.1526651 C20.1733764,16.1526651 20.7286822,15.6038848 20.7286822,14.9269299 C20.7286822,14.249975 20.1733764,13.7011946 19.4883721,13.7011946 C18.8033678,13.7011946 18.248062,14.249975 18.248062,14.9269299 C18.248062,15.6038848 18.8033678,16.1526651 19.4883721,16.1526651 Z"/>
</svg>
